app/themes/uggwc_pro/assets/images/thema/Geschichte.svg

<svg width="16" height="16" viewBox="0 0 16 16" fill="none" xmlns="http://www.w3.org/2000/svg">
<g clip-path="url(#clip0_111_177)">
<path d="M7.74999 0H8.24999C8.66562 0 8.99999 0.334375 8.99999 0.75V1.08438C11.5125 1.50312 13.4969 3.4875 13.9156 6H14C14.5531 6 15 6.44688 15 7C15 7.55312 14.5531 8 14 8H1.99999C1.44687 8 0.999991 7.55312 0.999991 7C0.999991 6.44688 1.44687 6 1.99999 6H2.08437C2.50312 3.4875 4.48749 1.50312 6.99999 1.08438V0.75C6.99999 0.334375 7.33437 0 7.74999 0ZM1.99999 9H3.99999V13H5.24999V9H7.24999V13H8.74999V9H10.75V13H12V9H14V13.1344C14.0187 13.1437 14.0375 13.1562 14.0531 13.1687L15.5531 14.1687C15.9187 14.4125 16.0844 14.8687 15.9562 15.2906C15.8281 15.7125 15.4406 16 15 16H0.999991C0.559366 16 0.171866 15.7125 0.0437412 15.2906C-0.0843838 14.8687 0.0781162 14.4125 0.446866 14.1687L1.94687 13.1687C1.96562 13.1562 1.98437 13.1469 2.00312 13.1344V9H1.99999Z" fill="#6E6CFF"/>
</g>
<defs>
<clipPath id="clip0_111_177">
<rect width="16" height="16" fill="white"/>
</clipPath>
</defs>
</svg>

<svg width="16" height="16" fill="none" xmlns="http://www.w3.org/2000/svg"><g clip-path="url(#a)"><path d="M7.75 0h.5c.416 0 .75.334.75.75v.334A5.995 5.995 0 0 1 13.916 6H14a.999.999 0 1 1 0 2H2a.999.999 0 1 1 0-2h.084A5.996 5.996 0 0 1 7 1.084V.75c0-.416.334-.75.75-.75zM2 9h2v4h1.25V9h2v4h1.5V9h2v4H12V9h2v4.134c.019.01.037.022.053.035l1.5 1A1 1 0 0 1 15 16H1a.998.998 0 0 1-.553-1.831l1.5-1 .056-.035V9H2z" fill="#6E6CFF"/></g><defs><clipPath id="a"><path fill="#fff" d="M0 0h16v16H0z"/></clipPath></defs></svg>
